X: 4
T: The Mountain Lark
R: reel
M: 4/4
L: 1/8
K: Bmin
F~E3 FEDE|F~E3 FABA|F~E3 FEDc| D3E FABA|F~E3 FEDE|F~E3 ~B3A|F~E3 FEDc| D3E F~A3||~B3e f2ed|Beed BAFA|BBeB fBed|~B3c dAFA|~B3e f2eg|f2ec dcde|f2ed dcBA|(3Bcd ec dcBA||


Tune 884	Setting 884

